img/partners/o-bank.svg

<svg width="355" height="93" viewBox="0 0 355 93" fill="none" xmlns="http://www.w3.org/2000/svg">
<path d="M46.3107 16.7588C29.8352 16.7588 16.5176 30.0764 16.5176 46.5519C16.5176 63.0273 29.8352 76.345 46.3107 76.345C62.7861 76.345 76.1038 63.0273 76.1038 46.5519C76.1038 30.0764 62.7861 16.7588 46.3107 16.7588ZM42.1918 59.1831L39.9951 65.6359C31.7574 62.89 26.2656 55.0642 26.2656 46.2773C26.2656 37.4904 31.7574 29.8019 40.1324 26.9186L42.3291 33.3715C36.8373 35.1564 33.2676 40.3736 33.2676 46.14C32.993 52.181 36.7 57.3982 42.1918 59.1831V59.1831ZM52.3517 65.7732L50.2922 59.1831C55.9214 57.3982 59.6283 52.181 59.6283 46.2773C59.6283 40.3736 55.9214 35.2937 50.4295 33.5088L52.6263 26.9186C61.0013 29.6646 66.6304 37.4904 66.6304 46.2773C66.6304 55.3388 60.864 63.1646 52.3517 65.7732V65.7732Z" fill="#9AACDE"/>
<path d="M319.115 51.9069L322.41 55.8885C318.978 59.4582 314.722 60.4192 311.289 60.4192C307.994 60.4192 305.66 59.87 303.601 58.909C299.207 56.7122 297.011 52.3188 297.011 46.9643C297.011 38.8638 302.503 32.8228 310.603 32.8228C319.664 32.8228 324.058 39.5503 323.371 48.3372H302.777C302.914 50.534 304.15 52.5934 305.935 53.6917C307.445 54.6528 309.23 55.0647 311.564 55.0647C314.173 55.0647 316.781 54.2409 319.115 51.9069V51.9069ZM302.914 43.5319H317.468C317.056 40.3741 314.447 37.6282 310.328 37.6282C306.072 37.6282 303.464 40.6487 302.914 43.5319ZM164.658 59.5954H172.072L160.402 46.0032L171.935 33.2347H164.658L155.871 43.3946H153.262V33.2347H147.633V59.4582H153.262V49.0237H155.871L164.658 59.5954V59.5954ZM188.822 38.0401C184.017 38.0401 180.859 41.747 180.859 46.4151C180.859 51.0831 184.017 54.7901 188.822 54.7901C193.627 54.7901 196.648 51.2204 196.648 46.4151C196.785 41.8843 193.765 38.0401 188.822 38.0401V38.0401ZM189.783 32.6855C197.197 32.6855 202.689 38.452 202.689 46.4151C202.689 54.2409 197.334 60.2819 189.783 60.2819C186.213 60.2819 183.33 59.0463 181.271 56.8495V70.5791H175.504V33.372H181.133V36.5298C183.33 33.9212 186.213 32.6855 189.783 32.6855V32.6855ZM264.609 33.372H241.131V38.5892H250.056V59.5954H255.822V38.5892H264.746V33.372H264.609V33.372ZM143.652 33.372H120.037V38.5892H128.961V59.5954H134.728V38.5892H143.652V33.372V33.372ZM113.172 46.5524C113.172 41.6097 109.74 38.0401 104.934 38.0401C100.266 38.0401 96.6967 41.6097 96.6967 46.5524C96.6967 51.495 100.129 55.0647 104.934 55.0647C109.602 55.0647 113.172 51.495 113.172 46.5524ZM90.793 46.5524C90.793 38.7265 96.834 32.8228 104.934 32.8228C112.898 32.8228 119.076 38.7265 119.076 46.5524C119.076 54.3782 113.035 60.4192 104.934 60.4192C96.9713 60.2819 90.793 54.3782 90.793 46.5524V46.5524ZM292.48 33.372V59.5954H286.851V42.7081L273.121 59.5954H268.591V33.372H274.22V50.2594L287.949 33.372H292.48V33.372ZM237.15 59.5954H231.521V33.372H237.15V59.5954ZM222.597 50.6712C222.597 48.3372 220.949 46.6897 218.752 46.6897H212.986V54.7901H218.752C220.949 54.7901 222.597 53.0053 222.597 50.6712ZM228.226 50.6712C228.226 55.8885 224.381 59.5954 218.89 59.5954H207.357V33.372H212.986V41.8843H219.439C224.931 41.8843 228.226 45.454 228.226 50.6712Z" fill="#253256"/>
</svg>

<svg width="355" height="93" fill="none" xmlns="http://www.w3.org/2000/svg"><path d="M46.31 16.759c-16.475 0-29.792 13.317-29.792 29.793 0 16.475 13.317 29.793 29.793 29.793 16.475 0 29.793-13.318 29.793-29.793 0-16.476-13.318-29.793-29.793-29.793zm-4.118 42.424l-2.197 6.453c-8.238-2.746-13.73-10.572-13.73-19.359 0-8.787 5.492-16.475 13.867-19.358l2.197 6.452c-5.492 1.785-9.061 7.003-9.061 12.769-.275 6.041 3.432 11.258 8.924 13.043zm10.16 6.59l-2.06-6.59c5.63-1.785 9.336-7.002 9.336-12.906 0-5.903-3.707-10.983-9.199-12.768l2.197-6.59C61.001 29.665 66.63 37.49 66.63 46.277c0 9.062-5.766 16.888-14.278 19.496z" fill="#9AACDE"/><path d="M319.115 51.907l3.295 3.982c-3.432 3.57-7.688 4.53-11.121 4.53-3.295 0-5.629-.549-7.688-1.51-4.394-2.197-6.59-6.59-6.59-11.945 0-8.1 5.492-14.141 13.592-14.141 9.061 0 13.455 6.727 12.768 15.514h-20.594c.137 2.197 1.373 4.256 3.158 5.355 1.51.96 3.295 1.373 5.629 1.373 2.609 0 5.217-.824 7.551-3.158zm-16.201-8.375h14.554c-.412-3.158-3.021-5.904-7.14-5.904-4.256 0-6.864 3.02-7.414 5.904zM164.658 59.595h7.414l-11.67-13.592 11.533-12.768h-7.277l-8.787 10.16h-2.609v-10.16h-5.629v26.223h5.629V49.024h2.609l8.787 10.571zm24.164-21.555c-4.805 0-7.963 3.707-7.963 8.375s3.158 8.375 7.963 8.375 7.826-3.57 7.826-8.375c.137-4.53-2.883-8.375-7.826-8.375zm.961-5.355c7.414 0 12.906 5.767 12.906 13.73 0 7.826-5.355 13.867-12.906 13.867-3.57 0-6.453-1.236-8.512-3.432v13.73h-5.767V33.371h5.629v3.158c2.197-2.609 5.08-3.845 8.65-3.845zm74.826.687h-23.478v5.217h8.925v21.006h5.766V38.59h8.924v-5.217h-.137zm-120.957 0h-23.615v5.217h8.924v21.006h5.767V38.59h8.924v-5.217zm-30.48 13.18c0-4.942-3.432-8.512-8.238-8.512-4.668 0-8.237 3.57-8.237 8.512 0 4.943 3.432 8.513 8.237 8.513 4.668 0 8.238-3.57 8.238-8.513zm-22.379 0c0-7.825 6.041-13.73 14.141-13.73 7.964 0 14.142 5.904 14.142 13.73 0 7.826-6.041 13.867-14.142 13.867-7.963-.137-14.141-6.04-14.141-13.867zm201.687-13.18v26.223h-5.629V42.708l-13.73 16.887h-4.53V33.372h5.629v16.887l13.729-16.887h4.531zm-55.33 26.223h-5.629V33.372h5.629v26.223zm-14.553-8.924c0-2.334-1.648-3.981-3.845-3.981h-5.766v8.1h5.766c2.197 0 3.845-1.785 3.845-4.119zm5.629 0c0 5.218-3.845 8.924-9.336 8.924h-11.533V33.372h5.629v8.512h6.453c5.492 0 8.787 3.57 8.787 8.787z" fill="#253256"/></svg>
